!!!COM: Haydn, Franz Joseph
!!!OTL: String Quartet in E-flat Major
!!!OPS: Opus 76
!!!ONM: No. 6
!!!OMD: Finale: Allegro spirituoso
!!!OMV: 4
!!!SCT: H III:80
!!!SCA: Thematisch-bibliographisches Werkevererzeichnis (A. van Hoboken)
!!!YOR: Trautwein Edition
!!!ENC: Frances Bennion
!!!CDT: 1732/3/31/-1809/5/31/
!!!CNT: Oesterreich
!!!YEC: Copyright (c) 1994, 2000 Center for Computer Assisted Research in the Humanities
!!!YEM: Rights to all derivative editions reserved.
!!!YEM: Refer to licensing agreement for further details.
!!!YEN: United States of America
**kern	**kern	**kern	**kern
*k[b-e-a-]	*k[b-e-a-]	*k[b-e-a-]	*k[b-e-a-]
*E-:	*E-:	*E-:	*E-:
*clefF4	*clefC3	*clefF	*clefF
*M3/4	*M3/4	*M3/4	*M3/4
4.r	4.r	4.r	4.r
4.r	4.r	4.r	8b-
.	.	.	8a-
.	.	.	8g
=1	=1	=1	=1
4r	4r	4r	8f
.	.	.	8e-
4E-	4e-	4g	8r
.	.	.	8ee-
4r	4r	4r	8dd
.	.	.	8cc
=2	=2	=2	=2
4r	4r	4r	8b-
.	.	.	8a-
4F	4c	4a-	8r
.	.	.	8a-
4r	4r	4r	8g
.	.	.	8f
=3	=3	=3	=3
4r	4r	4r	8e-
.	.	.	8d
4BB-	4f	4a-	8r
.	.	.	8cc
4r	4r	4r	8b-
.	.	.	8a-
=4	=4	=4	=4
4r	4r	4r	8f#
.	.	.	8g
4E-	4B-	4g	8r
.	.	.	8b-
4r	4r	4r	8ee-
.	.	.	8gg
=5	=5	=5	=5
4.r	8r	8r	[2.bb-
.	8ee-	8gg	.
.	2ff	2aa-	.
8B-	.	.	.
8c	.	.	.
8d	.	.	.
=6	=6	=6	=6
8e-	8ee-	8gg	2.bb-_
8g	8b-	8ee-	.
8r	2ff	2aa-	.
8B-	.	.	.
8c	.	.	.
8d	.	.	.
=7	=7	=7	=7
4e-	4ee-	8gg	8bb-]
.	.	8ee-	4cc
4a-	2r	8cc	.
.	.	4ff	4aa-
4a	.	.	.
.	.	[8ee-	[8gg
=8	=8	=8	=8
4b-	4B-	8ee-]	8gg]
.	.	8dd	8ff
2r	4b-	2r	8r
.	.	.	8b-
.	4r	.	8a-
.	.	.	8g
=9	=9	=9	=9
4r	4r	4r	8f
.	.	.	8e-
4E-	4e-	4g	8r
.	.	.	8ee-
4r	4r	4r	8dd
.	.	.	8cc
=10	=10	=10	=10
4r	4r	4r	8b-
.	.	.	8a-
4F	4c	4a-	8r
.	.	.	8a-
4r	4r	4r	8g
.	.	.	8f
=11	=11	=11	=11
4r	4r	4r	8e-
.	.	.	8d
4BB-	4f	4a-	8r
.	.	.	8cc
4r	4r	4r	8b-
.	.	.	8a-
=12	=12	=12	=12
4r	4r	4r	8f#
.	.	.	8g
4E-	4B-	4g	8r
.	.	.	8g
4r	4r	4r	8cc
.	.	.	8ee-
=13	=13	=13	=13
8r	8r	8e-	[2gg
8C	8E-	8g	.
8E-	8G	4.g	.
8G	8c	.	.
[4c	[4e-	.	8gg]
.	.	8f#	8ff#
=14	=14	=14	=14
8c]	8e-]	4.g	4.gg
8B	8d	.	.
4.c	4.e-	.	.
.	.	8a-	8aa-
.	.	[4g	[4gg
8d	8f	.	.
=15	=15	=15	=15
4.c	4.e-	8g]	8gg]
.	.	8f#	8ff#
.	.	8g	8gg
8B	8d	8a-	8aa-
8c	8e-	8g	8gg
8d	8f	8b	8ff
=16	=16	=16	=16
8e-	8g	4cc	8ee-
8f	8a-	.	8b
8e-	8g	2r	8cc
4.r	4.r	.	8f
.	.	.	8b-
.	.	.	8dd
=17	=17	=17	=17
8r	8r	8d	[2ff
8BB-	8D	8f	.
8D	8F	4.f	.
8F	8B-	.	.
[4B-	[4d	.	8ff]
.	.	8e	8ee
=18	=18	=18	=18
8B-]	8d]	4.f	4.ff
8A	8c#	.	.
4.B-	4.d	.	.
.	.	8g	8gg
.	.	[4f	[4ff
8c	8e-	.	.
=19	=19	=19	=19
4.B-	4.d	8f]	8ff]
.	.	8e	8ee
.	.	8f	8ff
8A	8c	8g	8gg
8B-	8d	8f	8ff
8c	8e-	8a	8ee-
=20	=20	=20	=20
8d	8f	4b-	8dd
8e-	8g-	.	8a
8d	8f	4.r	8b-
4.r	4r	.	8bb-
.	.	.	8aa
.	8b-	8dd	8gg
=21	=21	=21	=21
2.r	8a	8cc	4ff
.	8g	8b-	.
.	4f	4a	8r
.	.	.	8gg
.	8r	8r	8ff
.	8g	8b-	8ee-
=22	=22	=22	=22
4r	8f	8a	4dd
.	8e-	8g	.
4.r	4d	4f	8r
.	.	.	8ee-
.	4r	8r	8dd
8e-	.	8g	8cc
=23	=23	=23	=23
8d	2.r	8f	4.b-
8c	.	8e-	.
4.B-	.	4.d	.
.	.	.	8a
.	.	.	[4b-
8A	.	8c	.
=24	=24	=24	=24
2.G	4.r	4.B-	8b-]
.	.	.	8ddd
.	.	.	8ccc
.	8G	8dd	8bb-
.	8A	8cc	8aa
.	8B-	8b-	8gg
=25	=25	=25	=25
2.C	8.g	4.b-	8ff
.	.	.	8ee
.	16f	.	.
.	8e	.	8bb-
.	8e	8g	8gg
.	8f	8a	8ff
.	8g	8b-	8ee
=26	=26	=26	=26
4F	4f	4a	8ff
.	.	.	8ee
2r	8r	8r	2ff
.	8b-	8dd	.
.	8a	8cc	.
.	8g	8b-	.
=27	=27	=27	=27
4F	4f	4a	8ff
.	.	.	8ee
2r	8r	8r	4ff
.	8b-	8dd	.
.	8a	8cc	8ff
.	8g	8b-	8ee
=28	=28	=28	=28
4F	4f	4a	8ff
.	.	.	8ee
8r	8r	4.r	4ff
8F	8f	.	.
8E-	8e-	.	8r
8D	8d	8f	8ff
=29	=29	=29	=29
8C	8c	8e-	8ee-
8BB-	8B-	8d	8dd
8r	8r	8c	8cc
8B-	8b-	8B-	8b-
8A	8a	8r	8r
8G	8g	8b-	8bb-
=30	=30	=30	=30
8F	8f	8a	8aa
8E-	8e-	8g	8gg
8r	8r	8f	8ff
8G	8g	8e-	8ee-
8F	8f	8r	8r
8E-	8e-	8g	8gg
=31	=31	=31	=31
8D	8d	8f	8ff
8C	8c	8e-	8ee-
8r	8r	8d	8dd
8e-	8ee-	8c	8cc
8d	8dd	8r	8r
8c	8cc	8ee-	8eee-
=32	=32	=32	=32
8B-	8b-	8dd	8ddd
8A	8a	8cc	8ccc
8r	8r	8b-	8bb-
8c	8cc	8a	8aa
8B-	8b-	8r	8r
8A	8a	8cc	8ccc
=33	=33	=33	=33
8G	8g	8b-	8bb-
8F	8f	8a	8aa
4G	8r	8g	8gg
.	8B-	8f	8ff
4A	8c	8e	8ee
.	8f	8e-	8ee-
=34	=34	=34	=34
8B-	8f	8d	4dd
8B-	8d	16ee	.
.	.	16ff	.
8B-	8d	16ee	2r
.	.	16ff	.
8B-	8d	16gg	.
.	.	16ff	.
8B-	8d	16bb-	.
.	.	16aa	.
8B-	8b-	16gg	.
.	.	16ff	.
=35	=35	=35	=35
2.B-	2.a	2.ee-	8r
.	.	.	16bb
.	.	.	16ccc
.	.	.	16bb
.	.	.	16ccc
.	.	.	16ddd
.	.	.	16ccc
.	.	.	16eee-
.	.	.	16ccc
.	.	.	16fff
.	.	.	16ccc
=36	=36	=36	=36
8BB-	8b-	8dd	4ddd
8B-	8d	16ee	.
.	.	16ff	.
8B-	8d	16ee	2r
.	.	16ff	.
8B-	8d	16gg	.
.	.	16ff	.
8B-	8d	16bb-	.
.	.	16aa	.
8B-	8b-	16gg	.
.	.	16ff	.
=37	=37	=37	=37
2.B-	2.a	2.ee-	8r
.	.	.	16bb
.	.	.	16ccc
.	.	.	16bb
.	.	.	16ccc
.	.	.	16ddd
.	.	.	16ccc
.	.	.	16eee-
.	.	.	16ccc
.	.	.	16fff
.	.	.	16ccc
=38	=38	=38	=38
8BB-	4b-	4dd	8ddd
8B-	.	.	16ddd
.	.	.	16eee-
8B-	4r	4dd	16ddd
.	.	.	16eee-
8B-	.	.	16ddd
.	.	.	16eee-
8A-	4cc	8cc	16fff
.	.	.	16eee-
8A-	.	8ff	16ddd
.	.	.	16ccc
=39	=39	=39	=39
2G	16dd	16ff	2bb
.	16cc#	16ee	.
.	16dd	16ff	.
.	16cc#	16ee	.
.	16dd	16ff	.
.	16ff	16aa-	.
.	16ee-	16gg	.
.	16dd	16ff	.
4C	16cc	16ee-	4ccc
.	16dd	16dd	.
.	16ee-	16cc	.
.	16dd	16dd	.
=40	=40	=40	=40
2F	16cc	16ee-	2aa
.	16b	16dd	.
.	16cc	16ee-	.
.	16b	16dd	.
.	16cc	16ee-	.
.	16ee-	16cc	.
.	16dd	16dd	.
.	16cc	16ee-	.
4BB-	16b-	16dd	4bb-
.	16d	16ff	.
.	16e-	16ee-	.
.	16f	16dd	.
=41	=41	=41	=41
4E-	4e-	8.gg	4ccc
.	.	16ee-	.
4F	4f	4dd	4bb-
4F	4f	4cc	4aa
=42	=42	=42	=42
16B-	4f	4dd	4bb-
16F	.	.	.
16D	.	.	.
16BB-	.	.	.
4B-	8r	8r	2r
.	8dd	8ff	.
4r	8cc	8ee-	.
.	8b-	8dd	.
=43	=43	=43	=43
4.r	4a	4cc	16r
.	.	.	16ff
.	.	.	16aa
.	.	.	16ccc
.	8r	4.f	8eee-
8c	8A	.	8eee-
8B-	8B-	.	8ddd
8A	8c	16e	8ccc
.	.	16f	.
=44	=44	=44	=44
16B-	4B-	4b-	4ddd
16F	.	.	.
16D	.	.	.
16BB-	.	.	.
4B-	8r	8r	2r
.	8dd	8ff	.
4r	8cc	8ee-	.
.	8b-	8dd	.
=45	=45	=45	=45
4.r	4a	4cc	16r
.	.	.	16ff
.	.	.	16aa
.	.	.	16ccc
.	8r	4.f	8eee-
8c	8A	.	8eee-
8B-	8B-	.	8ddd
8A	8c	16e	8ccc
.	.	16f	.
=46	=46	=46	=46
4B-	8B-	4b-	8ddd
.	8f#	.	8ccc
2r	8g	8r	8bb-
.	8d	8ff	8aa
.	8e-	8ee-	8gg
.	8B	8dd	8ff
=47	=47	=47	=47
2.r	8c	8cc	8ee-
.	8B-	8ee-	8gg
.	8r	8r	8r
.	8B-	8ee-	8gg
.	8A	8dd	8ff
.	8a	8cc	8ee-
=48	=48	=48	=48
4.r	8b-	8b-	8dd
.	8B-	8dd	8ff
.	8r	8r	8r
8BB-	8d	8dd	8ff
8C	8e-	8cc	8ee-
8D	8f	8b-	8dd
=49	=49	=49	=49
8E-	8e-	8g	8cc
8r	8r	8r	8r
8C	8g	8cc	8ee-
8r	8r	8r	8r
8F	8c	8e-	8a
8r	8r	8r	8r
=50	=50	=50	=50
4BB-	16B-	4d	4b-
.	16d	.	.
.	16f	.	.
.	16b-	.	.
8r	8B-	2r	2r
8f	8d	.	.
8e-	8c	.	.
8d	8B-	.	.
=51	=51	=51	=51
4c	4F	4.r	16r
.	.	.	16f
.	.	.	16a
.	.	.	16cc
4.F	8r	.	8ee-
.	8A	8cc	8ee-
.	8B-	8b-	8dd
16E	8c	8a	8cc
16F	.	.	.
=52	=52	=52	=52
4B-	4B-	16b-	4dd
.	.	16dd	.
.	.	16ff	.
.	.	16bb-	.
8r	8r	4b-	2r
8f	8d	.	.
8e-	8c	4r	.
8d	8B-	.	.
=53	=53	=53	=53
4c	4F	4.r	16r
.	.	.	16ff
.	.	.	16aa
.	.	.	16ccc
4.F	8r	.	8eee-
.	8A	8cc	8eee-
.	8B-	8b-	8ddd
16E	8c	8a	8ccc
16F	.	.	.
=54	=54	=54	=54
4B-	8B-	8b-	8ddd
.	8f#	8aa	8ccc
2r	8g	8bb-	8bb-
.	8d	8ff	8aa-
.	8e-	8gg	8gg
.	8B	8dd	8ff
=55	=55	=55	=55
2.r	8c	8ee-	8ee-
.	8B-	8ee-	8gg
.	8r	8r	8r
.	8B-	8ee-	8gg
.	8A	8dd	8ff
.	8a	8cc	8ee-
=56	=56	=56	=56
4.r	8b-	8b-	8dd
.	8d	8dd	8ff
.	8r	8r	8r
8BB-	8d	8dd	8ff
8C	8e-	8cc	8ee-
8D	8f	8b-	8dd
=57	=57	=57	=57
8E-	8g	[2.b-	2.cc
8E-	8g	.	.
8E-	8g	.	.
8E-	8g	.	.
8E-	8g	.	.
8E-	8g	.	.
=58	=58	=58	=58
8E	8g	2.b-_	2.dd-
8E	8g	.	.
8E	8g	.	.
8E	8g	.	.
8E	8g	.	.
8E	8g	.	.
=59	=59	=59	=59
8F	8f	2b-]	2dd
8F	8f	.	.
8F	8f	.	.
8F	8f	.	.
8F	8f	8cc	8ee-
8F	8f	8a	8cc
=60	=60	=60	=60
4B-	4d	4b-	8b-
.	.	.	8b-
2r	8r	8r	[2bb-
.	8B-	8d	.
.	8c	8e-	.
.	8d	8f	.
=61	=61	=61	=61
2.r	8e-	8g	8bb-]
.	8f	8a-	8b-
.	8r	8r	[2bb-
.	8B-	8d	.
.	8c	8e-	.
.	8d	8f	.
=62	=62	=62	=62
2.r	8e-	8g	8bb-]
.	8f	8a-	8b-
.	8r	8r	8bb-
.	8B-	8d	8aa-
.	8c	8e-	8gg
.	8d	8f	8ff
=63	=63	=63	=63
8r	8e-	8g	8ee-
8BB-	8f	8a-	8dd
4B-	2r	2r	8r
.	.	.	8b-
4r	.	.	8dd
.	.	.	8ee-
=64	=64	=64	=64
8r	8r	8r	8ee
8BB-	8A-	8d	8ff
4B-	4a-	4dd	8r
.	.	.	8aa-
4r	4r	4r	8gg
.	.	.	8ff
=65	=65	=65	=65
8r	8r	8r	8ee-
8BB-	8A-	8d	8dd
4B-	4a-	4dd	8r
.	.	.	8b-
4r	4r	4r	8dd
.	.	.	8ee-
=66	=66	=66	=66
8r	8r	8r	8ee
8BB-	8A-	8d	8ff
4B-	4a-	4dd	8r
.	.	.	8aa-
4r	4r	4r	8gg
.	.	.	8ff
=67	=67	=67	=67
8r	8r	8r	8ee-
8BB-	8A-	8d	8dd
4B-	4a-	4dd	8r
.	.	.	8ccc
4r	4r	4r	8bb-
.	.	.	8aa-
=68	=68	=68	=68
8r	8r	8r	8gg
8BB-	8A-	8d	8ff
4B-	4a-	4dd	8r
.	.	.	8ccc
4r	4r	4r	8bb-
.	.	.	8aa-
=69	=69	=69	=69
2.r	2.r	2.r	8gg
.	.	.	8gg-
.	.	.	8ff
.	.	.	8ee
.	.	.	8ee-
.	.	.	8dd
=70	=70	=70	=70
2.r	2.r	2.r	8dd-
.	.	.	8cc
.	.	.	8b
.	.	.	8b-
.	.	.	8a-
.	.	.	8g
=71	=71	=71	=71
2.r	8e-	8g	8bb-
.	8f	8a-	8b
.	8r	8r	[2bb
.	8f	8a-	.
.	8e-	8g	.
.	8d	8f	.
=72	=72	=72	=72
2.r	4.e-	4.g	8bb]
.	.	.	8cc
.	.	.	[2ccc
.	8d	8f	.
.	8c	8e-	.
.	8B-	8d	.
=73	=73	=73	=73
[2.AA-	2.A-	4.c	8ccc]
.	.	.	8ddd
.	.	.	8eee-
.	.	8d	8ddd
.	.	8e-	8ccc
.	.	8e	8bb-
=74	=74	=74	=74
2.AA-]	4.c	4f	8aa-
.	.	.	8gg
.	.	2f#	8ff#
.	16c	.	8ee-
.	16d	.	.
.	8e-	.	8dd
.	8c	.	8cc
=75	=75	=75	=75
4GG	4g	4g	4b
8r	4c	4gg 4cc 4e-	4gg 4e- 4cc
8G	.	.	.
8F	4r	4r	4r
8E-	.	.	.
=76	=76	=76	=76
8D	4r	4r	4r
8C	.	.	.
8r	4F	4aa- 4cc 4f	4aa- 4f 4cc
8c	.	.	.
8B-	4r	4r	4r
8A-	.	.	.
=77	=77	=77	=77
8G	4r	4r	4r
8F	.	.	.
8r	4f	4f 4b	4d 4b 4aa-
8F	.	.	.
8E-	4r	4r	4r
8D	.	.	.
=78	=78	=78	=78
8C	4r	4r	4r
8BB	.	.	.
8r	4B	4ff 4dd 4g	4ddd 4g 4ff
8A-	.	.	.
8G	4r	4r	4r
8F	.	.	.
=79	=79	=79	=79
8D	4r	4r	4r
8E-	.	.	.
8r	4c	4e- 4G 4cc	4cc 4e- 4gg
8E-	.	.	.
8G	4r	4r	4r
8c	.	.	.
=80	=80	=80	=80
4e-	2.r	2.r	8r
.	.	.	8g
2r	.	.	8cc
.	.	.	8ee-
.	.	.	8gg
.	.	.	8dd
=81	=81	=81	=81
4r	4r	4r	8ff
.	.	.	8ee-
4r	4r	4r	8dd
.	.	.	8cc
4D	4a-	4f	8b
.	.	.	8dd
=82	=82	=82	=82
2.r	2.r	2.r	8ff
.	.	.	8aa-
.	.	.	8gg
.	.	.	8ff
.	.	.	8ee-
.	.	.	8dd
=83	=83	=83	=83
4E-	4cc	4g	8cc
.	.	.	8ee-
2r	2r	2r	8gg
.	.	.	8bb
.	.	.	8ccc
.	.	.	8gg
=84	=84	=84	=84
4E	4cc	4g	8ccc
.	.	.	8gg
4r	4r	4r	8ccc
.	.	.	8bb-
4F	4cc	4a-	8aa-
.	.	.	8ccc
=85	=85	=85	=85
2.r	2.r	2.r	8aa-
.	.	.	8ee
.	.	.	8ff
.	.	.	8ccc
.	.	.	8aa-
.	.	.	8ff
=86	=86	=86	=86
4BB-	4a-	4f	8ee-
.	.	.	8dd
2r	2r	2r	8ff
.	.	.	8dd
.	.	.	8a
.	.	.	8b-
=87	=87	=87	=87
4D	4a-	4f 4b-	8bb-
.	.	.	8ff
4r	4r	4r	8bb-
.	.	.	8ff
4E-	4g	4g 4b-	8gg
.	.	.	8dd
=88	=88	=88	=88
2.r	2.r	2.r	8ee-
.	.	.	8b-
.	.	.	8a-
.	.	.	8g
.	.	.	8f
.	.	.	8e-
=89	=89	=89	=89
4F	4B-	4A- 4d	8d
.	.	.	8a-
2r	2r	2r	8f
.	.	.	8cc
.	.	.	8b-
.	.	.	8a-
=90	=90	=90	=90
4r	4r	4r	8g
.	.	.	8f
4G	4d-	4e 4G	8e
.	.	.	8b-
4r	4r	4r	8g
.	.	.	8dd-
=91	=91	=91	=91
4r	4r	4r	8cc
.	.	.	8b-
4r	4r	4r	8a-
.	.	.	8g
4A-	4c	4f 4c	8f
.	.	.	8cc
=92	=92	=92	=92
2.r	2.r	2.r	8ff
.	.	.	8ee
.	.	.	8gg
.	.	.	8ff
.	.	.	8aa-
.	.	.	8ff
=93	=93	=93	=93
4r	4r	4r	8cc
.	.	.	8aa-
4r	4r	4r	8ff
.	.	.	8cc
4F	4A-	4a-	8dd-
.	.	.	8ff
=94	=94	=94	=94
2.r	2.r	2.r	8aa-
.	.	.	8ff
.	.	.	8ddd-
.	.	.	8aa-
.	.	.	8fff
.	.	.	8eee-
=95	=95	=95	=95
2.r	2.r	2.r	8ddd-
.	.	.	8aa-
.	.	.	8fff
.	.	.	8eee-
.	.	.	8ddd-
.	.	.	8ccc
=96	=96	=96	=96
[2.G	[2.d-	[2.e- [2.B-	8bb-
.	.	.	8ddd-
.	.	.	8ccc
.	.	.	8eee-
.	.	.	8ddd-
.	.	.	8ccc
=97	=97	=97	=97
2.G_	2.d-_	2.e-_ 2.B-_	8bb-
.	.	.	8ddd-
.	.	.	8ccc
.	.	.	8eee-
.	.	.	8ddd-
.	.	.	8ccc
=98	=98	=98	=98
2.G_	2.d-_	2.e-_ 2.B-_	8bb-
.	.	.	8ddd-
.	.	.	8ccc
.	.	.	8eee-
.	.	.	8ddd-
.	.	.	8ccc
=99	=99	=99	=99
2.G_	2.d-_	2.e-_ 2.B-_	8bb-
.	.	.	8ddd-
.	.	.	8ccc
.	.	.	8bb-
.	.	.	8aa-
.	.	.	8ccc
=100	=100	=100	=100
4G]	4d-]	4e-] 4B-]	8bb-
.	.	.	8aa-
2r	2r	2r	8gg
.	.	.	8bb-
.	.	.	8aa-
.	.	.	8gg
=101	=101	=101	=101
2.r	2.r	2.r	8ff
.	.	.	8aa-
.	.	.	8gg
.	.	.	8ff
.	.	.	8aa-
.	.	.	8gg
=102	=102	=102	=102
4G	4e- 4B-	4d-	4ff
2r	2r	2r	4aa-
.	.	.	4gg
=103	=103	=103	=103
2.r	2.r	2.r	4ff
.	.	.	8r
.	.	.	8ee-
.	.	.	8dd-
.	.	.	8cc
=104	=104	=104	=104
4r	4r	4r	8b-
.	.	.	8a-
4AA-	4e-	4c	8r
.	.	.	8aa-
4r	4r	4r	8gg
.	.	.	8ff
=105	=105	=105	=105
4r	4r	4r	8ee-
.	.	.	8dd-
4AA-	4d-	4f	8r
.	.	.	8dd-
4r	4r	4r	8cc
.	.	.	8b-
=106	=106	=106	=106
4r	4r	4r	8a-
.	.	.	8g
4AA-	4d-	4g 4B-	8r
.	.	.	8ff
4r	4r	4r	8ee-
.	.	.	8dd-
=107	=107	=107	=107
4r	4r	4r	8b
.	.	.	8cc
4AA-	4c	4c 4a-	8r
.	.	.	8e-
4r	4r	4r	8a-
.	.	.	8cc
=108	=108	=108	=108
4.r	8cc	8ee-	[2.ee-
.	8a-	8cc	.
.	2b-	2dd-	.
8E-	.	.	.
8F	.	.	.
8G	.	.	.
=109	=109	=109	=109
8A-	4a-	8cc	8ee-]
8c	.	8a-	8cc
8r	8r	2cc	2ee-
8F	8A	.	.
8G	8B-	.	.
8A	8c	.	.
=110	=110	=110	=110
8B-	4d-	4b-	8dd-
8d-	.	.	8b-
8r	8r	2dd	2ff
8G	8B	.	.
8A	8c	.	.
8B	8d	.	.
=111	=111	=111	=111
8c	4e-	4cc	8ee-
8e-	.	.	8cc
8r	2r	[2ee-	2gg
8C	.	.	.
8D	.	.	.
8E-	.	.	.
=112	=112	=112	=112
8F	4.r	8.ee-]	4aa-
8A-	.	.	.
.	.	32ff	.
.	.	32ee-	.
2r	.	[2dd	4.aa-
.	8B-	.	.
.	8c	.	.
.	8d	.	16gg
.	.	.	16aa-
=113	=113	=113	=113
4.r	8e-	8.dd]	4gg
.	8g	.	.
.	.	32ee-	.
.	.	32dd	.
.	2r	[2cc	4.gg
8AA-	.	.	.
8BB-	.	.	.
8C	.	.	16ff
.	.	.	16gg
=114	=114	=114	=114
8D	4.r	8.cc]	4ff
8F	.	.	.
.	.	32dd	.
.	.	32cc	.
2r	.	8b	4.ff
.	8G	8b	.
.	8A	8cc	.
.	8B	8dd	16ee
.	.	.	16ff
=115	=115	=115	=115
2.r	8c	4ee-	4ee-
.	8e-	.	.
.	8d	2r	4b
.	8f	.	.
.	8e-	.	4cc
.	8g	.	.
=116	=116	=116	=116
2.r	4f	2.r	8dd-
.	.	.	8ff
.	4g	.	8ee
.	.	.	8gg
.	4a-	.	8ff
.	.	.	8aa-
=117	=117	=117	=117
2.r	4e	2.r	8gg
.	.	.	8bb-
.	4f	.	8aa-
.	.	.	8ccc
.	4d	.	8bb
.	.	.	8ddd
=118	=118	=118	=118
2.r	4e-	2.r	8ccc
.	.	.	8eee-
.	4B	.	8ddd
.	.	.	8fff
.	4c	.	8eee-
.	.	.	8ggg
=119	=119	=119	=119
4FF	4f	4aa- 4cc	4aaa-
2r	2r	2r	2r
=120	=120	=120	=120
4GG	4d	4f	4b
8r	2r	2r	4.r
8GG	.	.	.
8FF	.	.	.
8EE-	.	.	8g
=121	=121	=121	=121
8DD	4.r	8r	8f
8CC	.	8g	8e-
8r	.	8f	8d
8AA-	8c	8e-	8c
8GG	8B-	4r	8r
8FF	8A-	.	8a-
=122	=122	=122	=122
8EE-	4.r	8r	8g
8DD	.	8a-	8f
8r	.	8g	8e-
8BB-	8d	8f	8d
8AA-	8c	4r	8r
8GG	8B-	.	8b-
=123	=123	=123	=123
8FF	2.r	8r	8a-
8EE	.	8b-	8g
2r	.	8a-	8f
.	.	8g	8e
.	.	8f	8dd-
.	.	8e	8cc
=124	=124	=124	=124
2.r	2.r	2.r	8b-
.	.	.	8gg
.	.	.	8ff
.	.	.	8ee
.	.	.	8bb-
.	.	.	8aa-
=125	=125	=125	=125
4E	4B-	4d-	8gg
.	.	.	8ddd-
2r	2r	2r	8ccc
.	.	.	8bb-
.	.	.	8aa-
.	.	.	8gg
=126	=126	=126	=126
4F	4A-	4c	8ff
.	.	.	8ccc
2r	2r	2r	8bb-
.	.	.	8aa-
.	.	.	8gg
.	.	.	8ff
=127	=127	=127	=127
4BB-	4f 4A-	4d	8ee-
.	.	.	8dd
2r	2r	2r	8cc
.	.	.	8b-
.	.	.	8a-
.	.	.	8g
=128	=128	=128	=128
4r	4r	4r	8f
.	.	.	8e-
4E-	4e-	4g	8r
.	.	.	8ee-
4r	4r	4r	8dd
.	.	.	8cc
=129	=129	=129	=129
4r	4r	4r	8b-
.	.	.	8a-
4F	4c	4a-	8r
.	.	.	8a-
4r	4r	4r	8g
.	.	.	8f
=130	=130	=130	=130
4r	4r	4r	8e-
.	.	.	8d
4BB-	4f	4a-	8r
.	.	.	8cc
4r	4r	4r	8b-
.	.	.	8a-
=131	=131	=131	=131
4r	4r	4r	8f#
.	.	.	8g
4E-	4B-	4g	8r
.	.	.	8b-
4r	4r	4r	8ee-
.	.	.	8gg
=132	=132	=132	=132
4.r	8r	8r	[2.bb-
.	8ee-	8gg	.
.	2ff	2aa-	.
8B-	.	.	.
8c	.	.	.
8d	.	.	.
=133	=133	=133	=133
8e-	8ee-	8gg	2.bb-_
8g	8b-	8ee-	.
8r	2ff	2aa-	.
8B-	.	.	.
8c	.	.	.
8d	.	.	.
=134	=134	=134	=134
4e-	4ee-	8gg	8bb-]
.	.	8ee-	4cc
4a-	2r	8cc	.
.	.	4ff	4aa-
4a	.	.	.
.	.	[8ee-	[8gg
=135	=135	=135	=135
4b-	4B-	8ee-]	8gg]
.	.	8dd	8ff
8r	8b-	4.r	4.r
8BB-	8B-	.	.
8AA-	8A-	.	.
8GG	8G	8B-	8b-
=136	=136	=136	=136
8FF	8F	8A-	8a-
8EE-	8E-	8G	8g
8r	8r	8d	8f
8E-	8e-	8e-	8e-
8D	8d	8r	8r
8C	8c	8e-	8ee-
=137	=137	=137	=137
8BB-	8B-	8d	8dd
8AA-	8A-	8c	8cc
8r	8r	8B-	8b-
8C	8c	8A-	8a-
8BB-	8B-	8r	8r
8AA-	8A-	8c	8cc
=138	=138	=138	=138
8GG	8G	8B-	8b-
8FF	8F	8A-	8a-
8r	8r	8e	8g
8A-	8a-	8f	8f
8G	8g	8r	8r
8F	8f	8a-	8aa-
=139	=139	=139	=139
8E-	8e-	8g	8gg
8D	8d	8f	8ff
8r	8r	8e-	8ee-
8F	8f	8d	8dd
8E-	8e-	8r	8r
8D	8d	8f	8ff
=140	=140	=140	=140
8C	8c	8e-	8ee-
8BB-	8B-	8d	8dd
4C	8r	8c	8cc
.	8E-	8B-	8b-
4D	8F	8A	8a
.	8B-	8A-	8a-
=141	=141	=141	=141
8E-	8B-	8G	4g
8E-	8G	16a	.
.	.	16b-	.
8E-	8G	16a	2r
.	.	16b-	.
8E-	8G	16cc	.
.	.	16b-	.
8E-	8G	16ee-	.
.	.	16dd	.
8E-	8e-	16cc	.
.	.	16b-	.
=142	=142	=142	=142
2.E-	2.d	2.a-	8r
.	.	.	16ee
.	.	.	16ff
.	.	.	16ee
.	.	.	16ff
.	.	.	16gg
.	.	.	16ff
.	.	.	16aa-
.	.	.	16ff
.	.	.	16bb-
.	.	.	16ff
=143	=143	=143	=143
8EE-	8e-	8g	4gg
8E-	8G	16a	.
.	.	16b-	.
8E-	8G	16a	2r
.	.	16b-	.
8E-	8G	16cc	.
.	.	16b-	.
8E-	8G	16ee-	.
.	.	16dd	.
8E-	8e-	16cc	.
.	.	16b-	.
=144	=144	=144	=144
2.E-	2.d	2.a-	8r
.	.	.	16ee
.	.	.	16ff
.	.	.	16ee
.	.	.	16ff
.	.	.	16gg
.	.	.	16ff
.	.	.	16aa-
.	.	.	16ff
.	.	.	16bb-
.	.	.	16ff
=145	=145	=145	=145
8EE-	[2.e-	8g	8gg
8E-	.	16ee-	16gg
.	.	16ff	16aa-
8E-	.	16gg	16bb-
.	.	16aa-	16ccc
8E-	.	16gg	16bb-
.	.	16aa-	16ccc
8E-	.	16bb-	16ddd-
.	.	16aa-	16ccc
8E-	.	16bb-	16ddd-
.	.	16gg	16bb-
=146	=146	=146	=146
8A-	4e-]	4aa-	8.ccc
8A-	.	.	.
.	.	.	16aa-
8A-	4f	2cc	4ff
8A-	.	.	.
8A	4f	.	4ee-
8A	.	.	.
=147	=147	=147	=147
8B-	4f	4cc	4ee-
8BB-	.	.	.
[2BB-	4.r	4b-	8dd
.	.	.	8bb-
.	.	8r	8aa-
.	8b-	8dd-	8gg
=148	=148	=148	=148
2.BB-_	8a-	8cc	8ff
.	8g	8b-	8ee
.	8f	8a-	8ff
.	8e-	8g	8ccc
.	8d	8f	8bb-
.	8cc	8ee-	8aa-
=149	=149	=149	=149
2BB-_	8b-	8dd	8gg
.	8a-	8cc	8ff
.	8g	8b-	8ee-
.	8f	8a-	8dd
8BB-]	8e-	8g	8cc
8B-	8d	8f	8b-
=150	=150	=150	=150
8B	8f	8d	8a-
8c	8e-	8e-	8g
4A-	4a-	4c	4cc
4B-	4f	4A-	4d
=151	=151	=151	=151
16E-	4e-	4G	4e-
16BB-	.	.	.
16GG	.	.	.
16EE-	.	.	.
4E-	8r	8r	2r
.	8g	8b-	.
4r	8f	8a-	.
.	8e-	8g	.
=152	=152	=152	=152
4.r	4d	4f	16r
.	.	.	16b-
.	.	.	16dd
.	.	.	16ff
.	8r	4.B-	8aa-
8f	8D	.	8aa-
8e-	8E-	.	8gg
8d	8F	16A	8ff
.	.	16B-	.
=153	=153	=153	=153
16e-	4E-	4e-	4gg
16B-	.	.	.
16G	.	.	.
16E-	.	.	.
4e-	8r	8r	2r
.	8g	8b-	.
4r	8f	8a-	.
.	8e-	8g	.
=154	=154	=154	=154
4.r	4d	4f	16r
.	.	.	16b-
.	.	.	16dd
.	.	.	16ff
.	8r	4.B-	8aa-
8f	8D	.	8aa-
8e-	8E-	.	8gg
8d	8F	16A	8ff
.	.	16B-	.
=155	=155	=155	=155
4e-	8E-	4e-	8gg
.	8B	.	8ff
2r	8c	8r	8ee-
.	8G	8b-	8dd
.	8A-	8a-	8cc
.	8E	8g	8b-
=156	=156	=156	=156
2.r	8F	8f	8a-
.	8E-	8a-	8cc
.	8r	8r	8r
.	8E-	8a-	8cc
.	8D	8g	8b-
.	8d	8f	8a-
=157	=157	=157	=157
4.r	8e-	8e-	8g
.	8E-	8g	8b-
.	8r	8r	8r
8E-	8g	8gg	8bb-
8F	8a-	8ff	8aa-
8G	8b-	8ee-	8gg
=158	=158	=158	=158
8A-	8a-	8cc	8ff
8r	8r	8r	8r
8F	8cc	8ff	8aa-
8r	8r	8r	8r
8B-	8f	8a-	8dd
8r	8r	8r	8r
=159	=159	=159	=159
4E-	16e-	4g	4ee-
.	16g	.	.
.	16b-	.	.
.	16ee-	.	.
8r	8e-	2r	2r
8B-	8g	.	.
8A-	8f	.	.
8G	8e-	.	.
=160	=160	=160	=160
4F 4BB-	4d 4B-	16r	4.r
.	.	16b-	.
.	.	16dd	.
.	.	16ff	.
4.BB-	8r	8aa-	.
.	8d	8aa-	8ff
.	8e-	8gg	8ee-
16AA	8f	8ff	8dd
16BB-	.	.	.
=161	=161	=161	=161
4E-	4e-	4gg	16ee-
.	.	.	16gg
.	.	.	16bb-
.	.	.	16eee-
8r	8r	2r	4ee-
8G	8b-	.	.
8F	8a-	.	4r
8E-	8g	.	.
=162	=162	=162	=162
4BB-	4f	4.r	16r
.	.	.	16b-
.	.	.	16dd
.	.	.	16ff
8r	4.B-	.	8aa-
8d	.	8ff	8aa-
8e-	.	8ee-	8gg
8f	16A	8dd	8ff
.	16B-	.	.
=163	=163	=163	=163
4e-	8e-	8ee-	8gg
.	8b	8dd	8ff
2r	8cc	8ee-	8ee-
.	8g	8b-	8dd-
.	8a-	8cc	8cc
.	8e	8g	8b-
=164	=164	=164	=164
2.r	8f	8a-	8a-
.	8e-	8a-	8cc
.	8r	8r	8r
.	8e-	8aa-	8ccc
.	8d	8gg	8bb-
.	8dd	8ff	8aa-
=165	=165	=165	=165
4.r	8ee-	8ee-	8gg
.	8e-	8gg	8bb-
.	8r	8r	8r
8E-	8g	8gg	8bb-
8F	8a-	8ff	8aa-
8G	8b-	8ee-	8gg
=166	=166	=166	=166
8A-	8cc	[2.ee-	2.ff
8A-	8c	.	.
8A-	8c	.	.
8A-	8c	.	.
8A-	8c	.	.
8A-	8c	.	.
=167	=167	=167	=167
8A	8c	2.ee-_	2.gg-
8A	8c	.	.
8A	8c	.	.
8A	8c	.	.
8A	8c	.	.
8A	8c	.	.
=168	=168	=168	=168
8B-	8B-	2ee-]	2gg
8B-	8B-	.	.
8B-	8B-	.	.
8B-	8B-	.	.
8B-	8B-	8ff	8aa-
8B-	8B-	8dd	8ff
=169	=169	=169	=169
[2.E-	8g	8b-	4ee-
.	8a-	8cc	.
.	[2b-	[2dd-	8r
.	.	.	8bb-
.	.	.	8aa-
.	.	.	8gg
=170	=170	=170	=170
2.E-_	4b-]	4dd-]	8ff
.	.	.	8ee-
.	[2a-	[2cc	8r
.	.	.	8eee-
.	.	.	8ddd-
.	.	.	8ccc
=171	=171	=171	=171
2.E-_	4a-]	4cc]	8bb-
.	.	.	8aa-
.	[2a-	[2dd [2f	8r
.	.	.	8ccc
.	.	.	8bb-
.	.	.	8aa-
=172	=172	=172	=172
4E-]	4a-]	4dd] 4f]	8gg
.	.	.	8ff
4E-	4a-	4dd 4f	8ee-
.	.	.	8dd
4E-	4a-	4dd 4f	8aa-
.	.	.	8dd
=173	=173	=173	=173
4E-	8g	8ee- 8e-	4ee-
.	8g	8b-	.
4r	8f	8a-	4r
.	8e-	8g	.
4BB-	8d	8f	4ff 4b- 4d
.	8f	8a-	.
=174	=174	=174	=174
4E-	8e-	8g	4e- 4gg 4b-
.	8g	8b-	.
4r	8f	8a-	4r
.	8e-	8g	.
4BB-	8d	8f	4B- 4dd 4f
.	8f	8a-	.
=175	=175	=175	=175
4EE-	4e-	4g	4ee- 4e- 4G
8r	4c	4gg 4cc 4e-	4gg 4cc 4e-
8G	.	.	.
8F	4r	4r	4r
8E-	.	.	.
=176	=176	=176	=176
4EE-	4e-	4g	4e- 4G 4ee-
2r	2r	2r	2r
==	==	==	==
*-	*-	*-	*-
!!!RWG1: This file contains only pitch and duration data.
!!!RWG2: Transposing instruments are not transposed.
!!!RWG3: Spines may have incompatible meters.
!!!RWG4: Durations of rests and tied notes may be interpreted.
!!!RWG: Key is interpreted using the Humdrum key tool.
!!!GTL: 6 Quartetti ("Erdödy")
!!!AFT: stage1
!!!END: 1997/04/15
!!!KEY: 2270041971
!!!EMD: Converted from MuseData to Humdrum Dec 16, 2000, by Andreas Kornstaedt using muse2kern.
!!!EMD: Manual editing by Craig Sapp, Nov 2001
